svg/u1f3cf.svg

<svg viewBox="0 0 128 128" xmlns="http://www.w3.org/2000/svg">
  <path d="M66.65,45.55l5.25-6.89c0,0,1.05-1.62,2.04-1.51c0.98,0.11,2.58,3.23,6.52,2.92 c4.16-0.33,8.08-1.41,8.08-1.41l3.28,4.6l-0.56,3.02c0,0-1.24,3.72-0.54,6.19c0.61,2.17,2.74,3.53,2.77,4.52 c0.05,1.31-63.05,63.62-63.71,64.06s-7.22-0.44-7.88-0.77s-11.38-12.58-11.38-12.58s-0.45-5.4,0.1-6.38 c0.07-0.12,0.47-0.52,0.79-0.77c4.56-3.55,21.78-10.45,35-23.48C52.1,71.45,66.65,45.55,66.65,45.55z" fill="#D06F1D"/>
  <path d="M111.76,16.54l0-4.66c0,0,2.07-4.34,2.57-4.98s4.57-1.43,7.43,1.64c2.86,3.07,2.34,6.06,2.07,6.5 c-0.31,0.5-5.47,3.67-5.47,3.67L111.76,16.54z" fill="#AF570C"/>
  <path d="M71.91,38.65c0.41-0.2,2.89,3.58,5.88,3.73c2.99,0.15,7.98-0.15,7.98-0.15l2.53,3.91l-0.15,2.68 c0,0-0.61,2.91,0,4.75s1.69,2.76,1.84,3.45c0.15,0.69-59.59,60.88-60.12,61.04c-0.54,0.15-6.82,0.08-7.28-0.3 s-9.17-10.17-9.55-10.86c-0.38-0.69-1.8-5.47-1.64-6.32C11.53,99.75,71.39,38.91,71.91,38.65z" fill="#EB8B34"/>
  <path d="M84.17,39.46c0-0.23,27.13-27.06,27.13-27.06l6.6,6.9L90.94,46.75c0,0-8.4,1.39-8.32,1.01 C82.7,47.37,84.17,39.46,84.17,39.46z" fill="#474C4F"/>
  <polygon points="98.9,24.69 102.03,21.57 108.93,28.44 105.72,31.71 " fill="#E0E0E0"/>
  <path d="M104.97,18.67l6.81,6.85l6.98-7.03c0,0-6.72-7.01-6.91-6.81C111.69,11.84,104.97,18.67,104.97,18.67z " fill="#E0E0E0"/>
  <path d="M56.39,73.69c0.59,0.64,2.28-0.77,3.46-1.69c0.49-0.38,8.97-7.14,16.61-13.61 s14.72-11.43,14.77-12.02s-6.41-6.87-7.06-6.91c-0.66-0.04-6.28,6.34-12.24,13.62c-6.63,8.1-13.49,16.57-13.72,16.86 C57.03,71.5,55.93,73.19,56.39,73.69z" fill="#AF570C"/>
  <path d="M8.77,32.14c-5.74,5.11-7.2,15.21-0.6,21.98c5.59,5.74,14.73,6.42,21.38,0.08 c6.07-5.8,4.53-16.16,0.91-20.39C25.15,27.61,14.96,26.62,8.77,32.14z" fill="#A52415"/>
  <path d="M16.73,30.68c-1.77-0.21-6.56,0.86-8.77,6.12c-2.01,4.79-0.71,8.27,0.27,8.54 c1.61,0.45,2.9-6.08,6.46-8.43s5.75-0.82,6.24-2.14C21.28,33.85,20.4,31.12,16.73,30.68z" fill="#D26051"/>
  <path d="M6.46,52.03c0.38-0.13,8.91-3.75,13.68-7.42c7.26-5.59,9.44-11.7,9.44-11.7s1.36,1.06,2.35,3.05 c0.71,1.44,1.31,3.73,1.27,3.97c-0.08,0.51-5.27,6.14-10.52,10.19s-11.64,6.38-11.64,6.38s-1.96-1.43-2.89-2.38 C7.16,53.09,6.46,52.03,6.46,52.03z" fill="#8B200B"/>
  <path d="M5.45,50.37c0,0,7.23-1.67,13.86-7.05c6.45-5.24,9.49-11.15,9.49-11.15s0.71,0.52,1.21,1.02 c0.5,0.5,0.86,1.07,0.86,1.07s-1.73,5.47-10.19,11.98c-7.47,5.76-13.74,6.5-13.74,6.5s-0.53-0.58-0.93-1.29 C5.73,50.92,5.45,50.37,5.45,50.37z" fill="#FDE7C4"/>
  <path d="M9.33,55.2c0,0,6.81-1.54,13.36-6.93c8.22-6.76,9.88-10.81,9.88-10.81s0.41,1.1,0.56,1.76 c0.19,0.82,0.31,1.8,0.31,1.8s-2.32,4.75-8.83,9.75c-6.46,4.97-11.88,6.58-11.88,6.58s-1.11-0.5-1.85-0.95 C10.27,56.04,9.33,55.2,9.33,55.2z" fill="#FDE7C4"/>
</svg>

<svg viewBox="0 0 128 128" xmlns="http://www.w3.org/2000/svg">
  <defs/>
  <path d="M66.65,45.55 L71.9,38.66 C71.9,38.66 72.95,37.04 73.94,37.15 C74.92,37.26 76.52,40.38 80.46,40.07 C84.62,39.74 88.54,38.66 88.54,38.66 L91.82,43.26 L91.26,46.28 C91.26,46.28 90.02,50 90.72,52.47 C91.33,54.64 93.46,56 93.49,56.99 C93.54,58.3 30.44,120.61 29.78,121.05 C29.12,121.49 22.56,120.61 21.9,120.28 C21.24,119.95 10.52,107.7 10.52,107.7 C10.52,107.7 10.07,102.3 10.62,101.32 C10.69,101.2 11.09,100.8 11.41,100.55 C15.97,97 33.19,90.1 46.41,77.07 C52.1,71.45 66.65,45.55 66.65,45.55 Z" fill="#D06F1D"/>
  <path d="M111.76,16.54 L111.76,11.88 C111.76,11.88 113.83,7.54 114.33,6.9 C114.83,6.26 118.9,5.47 121.76,8.54 C124.62,11.61 124.1,14.6 123.83,15.04 C123.52,15.54 118.36,18.71 118.36,18.71 L111.76,16.54 Z" fill="#AF570C"/>
  <path d="M71.91,38.65 C72.32,38.45 74.8,42.23 77.79,42.38 C80.78,42.53 85.77,42.23 85.77,42.23 L88.3,46.14 L88.15,48.82 C88.15,48.82 87.54,51.73 88.15,53.57 C88.76,55.41 89.84,56.33 89.99,57.02 C90.14,57.71 30.4,117.9 29.87,118.06 C29.33,118.21 23.05,118.14 22.59,117.76 C22.13,117.38 13.42,107.59 13.04,106.9 C12.66,106.21 11.24,101.43 11.4,100.58 C11.53,99.75 71.39,38.91 71.91,38.65 Z" fill="#EB8B34"/>
  <path d="M84.17,39.46 C84.17,39.23 111.3,12.4 111.3,12.4 L117.9,19.3 L90.94,46.75 C90.94,46.75 82.54,48.14 82.62,47.76 C82.7,47.37 84.17,39.46 84.17,39.46 Z" fill="#474C4F"/>
  <path d="M98.9,24.69 L102.03,21.57 L108.93,28.44 L105.72,31.71 Z" fill="#E0E0E0"/>
  <path d="M104.97,18.67 L111.78,25.52 L118.76,18.49 C118.76,18.49 112.04,11.48 111.85,11.68 C111.69,11.84 104.97,18.67 104.97,18.67 Z" fill="#E0E0E0"/>
  <path d="M56.39,73.69 C56.98,74.33 58.67,72.92 59.85,72 C60.34,71.62 68.82,64.86 76.46,58.39 C84.1,51.92 91.18,46.96 91.23,46.37 C91.28,45.78 84.82,39.5 84.17,39.46 C83.51,39.42 77.89,45.8 71.93,53.08 C65.3,61.18 58.44,69.65 58.21,69.94 C57.03,71.5 55.93,73.19 56.39,73.69 Z" fill="#AF570C"/>
  <path d="M8.77,32.14 C3.03,37.25 1.57,47.35 8.17,54.12 C13.76,59.86 22.9,60.54 29.55,54.2 C35.62,48.4 34.08,38.04 30.46,33.81 C25.15,27.61 14.96,26.62 8.77,32.14 Z" fill="#A52415"/>
  <path d="M16.73,30.68 C14.96,30.47 10.17,31.54 7.96,36.8 C5.95,41.59 7.25,45.07 8.23,45.34 C9.84,45.79 11.13,39.26 14.69,36.91 C18.25,34.56 20.44,36.09 20.93,34.77 C21.28,33.85 20.4,31.12 16.73,30.68 Z" fill="#D26051"/>
  <path d="M6.46,52.03 C6.84,51.9 15.37,48.28 20.14,44.61 C27.4,39.02 29.58,32.91 29.58,32.91 C29.58,32.91 30.94,33.97 31.93,35.96 C32.64,37.4 33.24,39.69 33.2,39.93 C33.12,40.44 27.93,46.07 22.68,50.12 C17.43,54.17 11.04,56.5 11.04,56.5 C11.04,56.5 9.08,55.07 8.15,54.12 C7.16,53.09 6.46,52.03 6.46,52.03 Z" fill="#8B200B"/>
  <path d="M5.45,50.37 C5.45,50.37 12.68,48.7 19.31,43.32 C25.76,38.08 28.8,32.17 28.8,32.17 C28.8,32.17 29.51,32.69 30.01,33.19 C30.51,33.69 30.87,34.26 30.87,34.26 C30.87,34.26 29.14,39.73 20.68,46.24 C13.21,52 6.94,52.74 6.94,52.74 C6.94,52.74 6.41,52.16 6.01,51.45 C5.73,50.92 5.45,50.37 5.45,50.37 Z" fill="#FDE7C4"/>
  <path d="M9.33,55.2 C9.33,55.2 16.14,53.66 22.69,48.27 C30.91,41.51 32.57,37.46 32.57,37.46 C32.57,37.46 32.98,38.56 33.13,39.22 C33.32,40.04 33.44,41.02 33.44,41.02 C33.44,41.02 31.12,45.77 24.61,50.77 C18.15,55.74 12.73,57.35 12.73,57.35 C12.73,57.35 11.62,56.85 10.88,56.4 C10.27,56.04 9.33,55.2 9.33,55.2 Z" fill="#FDE7C4"/>
</svg>
